packages/core/assets/Icons/download.svg

<svg viewBox="0 0 20 20" fill="none" xmlns="http://www.w3.org/2000/svg">
<path d="M10 12.9792C9.88893 12.9792 9.78476 12.9618 9.68754 12.9271C9.59032 12.8924 9.50004 12.8334 9.41671 12.75L6.41671 9.75004C6.25004 9.58337 6.17018 9.38893 6.17712 9.16671C6.18407 8.94449 6.26393 8.75004 6.41671 8.58337C6.58337 8.41671 6.78129 8.3299 7.01046 8.32296C7.23962 8.31601 7.43754 8.39587 7.60421 8.56254L9.16671 10.125V4.16671C9.16671 3.9306 9.24657 3.73268 9.40629 3.57296C9.56601 3.41324 9.76393 3.33337 10 3.33337C10.2362 3.33337 10.4341 3.41324 10.5938 3.57296C10.7535 3.73268 10.8334 3.9306 10.8334 4.16671V10.125L12.3959 8.56254C12.5625 8.39587 12.7605 8.31601 12.9896 8.32296C13.2188 8.3299 13.4167 8.41671 13.5834 8.58337C13.7362 8.75004 13.816 8.94449 13.823 9.16671C13.8299 9.38893 13.75 9.58337 13.5834 9.75004L10.5834 12.75C10.5 12.8334 10.4098 12.8924 10.3125 12.9271C10.2153 12.9618 10.1112 12.9792 10 12.9792ZM5.00004 16.6667C4.54171 16.6667 4.14935 16.5035 3.82296 16.1771C3.49657 15.8507 3.33337 15.4584 3.33337 15V13.3334C3.33337 13.0973 3.41324 12.8993 3.57296 12.7396C3.73268 12.5799 3.9306 12.5 4.16671 12.5C4.40282 12.5 4.60074 12.5799 4.76046 12.7396C4.92018 12.8993 5.00004 13.0973 5.00004 13.3334V15H15V13.3334C15 13.0973 15.0799 12.8993 15.2396 12.7396C15.3993 12.5799 15.5973 12.5 15.8334 12.5C16.0695 12.5 16.2674 12.5799 16.4271 12.7396C16.5868 12.8993 16.6667 13.0973 16.6667 13.3334V15C16.6667 15.4584 16.5035 15.8507 16.1771 16.1771C15.8507 16.5035 15.4584 16.6667 15 16.6667H5.00004Z" fill="currentColor"/>
</svg>

<svg xmlns="http://www.w3.org/2000/svg" width="20" height="20" fill="none" viewBox="0 0 20 20">
  <path fill="#201F1F" d="M10 12.98a.923.923 0 0 1-.312-.053.73.73 0 0 1-.271-.177l-3-3a.763.763 0 0 1-.24-.583.85.85 0 0 1 .833-.844.776.776 0 0 1 .594.24l1.563 1.562V4.167c0-.236.08-.434.24-.594.159-.16.357-.24.593-.24s.434.08.594.24c.16.16.24.358.24.594v5.958l1.562-1.562a.775.775 0 0 1 .594-.24.85.85 0 0 1 .833.844.764.764 0 0 1-.24.583l-3 3a.73.73 0 0 1-.27.177.922.922 0 0 1-.313.052Zm-5 3.687c-.458 0-.85-.164-1.177-.49A1.605 1.605 0 0 1 3.333 15v-1.667c0-.236.08-.434.24-.593.16-.16.358-.24.594-.24s.434.08.593.24c.16.16.24.357.24.593V15h10v-1.667c0-.236.08-.434.24-.593.16-.16.357-.24.593-.24.237 0 .434.08.594.24.16.16.24.357.24.593V15c0 .458-.164.85-.49 1.177-.326.326-.719.49-1.177.49H5Z"/>
</svg>
